Obsidian/actions/16s/resource-calendar-child.svg

<svg height="16" viewBox="0 0 16 16" width="16" xmlns="http://www.w3.org/2000/svg"><path d="m2.9960938.99609375.0039062.00390625c-2.25 0-2 2-2 2v12h5.9960938v-2h-3.9960938v-10h10v4h1.996094v-4.0039062c0-2.00000005-2-2.00000005-2-2.00000005zm1.0039062 3.00390625v2h2v-2zm3 0v2h2v-2zm3 0v2h2v-2zm-6 3v2h2v-2zm4.9960938 1.9960938c-.554 0-1 .5344387-1 1.1992182v3.601563c0 .6648.446 1.199219 1 1.199219h5.0000002c.54707 0 .985134-.522551.996094-1.175782v1.175782h.003906v-4.820313c-.01-.6599997-.45-1.1796872-1-1.1796872zm-4.9960938 1.0039062v2h2v-2z" fill="#bebebe"/></svg>

<svg xmlns="http://www.w3.org/2000/svg" width="16" height="16" viewBox="0 0 16 16">
 <defs>
  <style id="current-color-scheme" type="text/css">
   .ColorScheme-Text { color:#bebebe; } .ColorScheme-Highlight { color:#4285f4; }
  </style>
 </defs>
 <path style="fill:currentColor" class="ColorScheme-Text" d="M 2.9960938 0.99609375 L 3 1 C 0.75 1 1 3 1 3 L 1 15 L 6.9960938 15 L 6.9960938 13 L 3 13 L 3 3 L 13 3 L 13 7 L 14.996094 7 L 14.996094 2.9960938 C 14.996094 0.99609375 12.996094 0.99609375 12.996094 0.99609375 L 2.9960938 0.99609375 z M 4 4 L 4 6 L 6 6 L 6 4 L 4 4 z M 7 4 L 7 6 L 9 6 L 9 4 L 7 4 z M 10 4 L 10 6 L 12 6 L 12 4 L 10 4 z M 4 7 L 4 9 L 6 9 L 6 7 L 4 7 z M 8.9960938 8.9960938 C 8.4420938 8.9960938 7.9960938 9.5305325 7.9960938 10.195312 L 7.9960938 13.796875 C 7.9960938 14.461675 8.4420938 14.996094 8.9960938 14.996094 L 13.996094 14.996094 C 14.543164 14.996094 14.981228 14.473543 14.992188 13.820312 L 14.992188 14.996094 L 14.996094 14.996094 L 14.996094 10.175781 C 14.986094 9.5157813 14.546094 8.9960938 13.996094 8.9960938 L 8.9960938 8.9960938 z M 4 10 L 4 12 L 6 12 L 6 10 L 4 10 z"/>
</svg>
